; generated by PrusaSlicer 2.9.4 on 2026-01-26 at 12:13:10 UTC


;
;

;
;

;
;

;
;

;
;
; 

; external perimeters extrusion width = 0.45mm
; perimeters extrusion width = 0.45mm
; infill extrusion width = 0.45mm
; solid infill extrusion width = 0.45mm
; top infill extrusion width = 0.42mm
; support material extrusion width = 0.40mm
; first layer extrusion width = 0.50mm

M73 P0 R19
M73 Q0 S20
M201 X4000 Y4000 Z200 E2500 ; sets maximum accelerations, mm/sec^2
M203 X300 Y300 Z40 E100 ; sets maximum feedrates, mm / sec
M204 P4000 R1200 T4000 ; sets acceleration (P, T) and retract acceleration (R), mm/sec^2
M205 X8.00 Y8.00 Z2.00 E10.00 ; sets the jerk limits, mm/sec
M205 S0 T0 ; sets the minimum extruding and travel feed rate, mm/sec

M486 S0
M486 AShape-Box
M486 S-1

;TYPE:Custom
M17 ; enable steppers
M862.1 P0.4 A0 F0 ; nozzle check
M862.3 P "MK4" ; printer model check
M862.5 P2 ; g-code level check
M862.6 P"Input shaper" ; FW feature check
M115 U6.1.3+7898

M555 X112.5 Y88.5 W32 H29

G90 ; use absolute coordinates
M83 ; extruder relative mode

M140 S60 ; set bed temp
M104 T0 S170 ; set extruder temp for bed leveling
M109 T0 R170 ; wait for temp

M84 E ; turn off E motor

G28 ; home all without mesh bed level

G1 X42 Y-4 Z5 F4800

M302 S160 ; lower cold extrusion limit to 160C


G1 E-2 F2400 ; retraction


M84 E ; turn off E motor

G29 P9 X10 Y-4 W32 H4

M106 S100

G0 Z40 F10000

M190 S60 ; wait for bed temp

M107

;
; MBL
;
M84 E ; turn off E motor
G29 P1 ; invalidate mbl & probe print area
G29 P1 X0 Y0 W50 H20 C ; probe near purge place
G29 P3.2 ; interpolate mbl probes
G29 P3.13 ; extrapolate mbl outside probe area
G29 A ; activate mbl

; prepare for purge
M104 S230
G0 X0 Y-4 Z15 F4800 ; move away and ready for the purge
M109 S230

G92 E0
M569 S0 E ; set spreadcycle mode for extruder

;
; Extrude purge line
;
G92 E0 ; reset extruder position
G1 E2 F2400 ; deretraction after the initial one before nozzle cleaning
G0 E7 X15 Z0.2 F500 ; purge
G0 X25 E4 F500 ; purge
G0 X35 E4 F650 ; purge
G0 X45 E4 F800 ; purge
G0 X48 Z0.05 F8000 ; wipe, move close to the bed
G0 X51 Z0.2 F8000 ; wipe, move quickly away from the bed

G92 E0
M221 S100 ; set flow to 100%
G21 ; set units to millimeters
G90 ; use absolute coordinates
M83 ; use relative distances for extrusion

M572 S0.036 ; Pressure advance


M142 S36 ; set heatbreak target temp
M107
;LAYER_CHANGE
;Z:0.2
;HEIGHT:0.2
G1 E-.7 F2100
G1 Z.8 F720
M486 S0
G1 X136.593 Y116.593 F18000
G1 Z.2 F720
G1 E.7 F1500
M204 P500
;TYPE:Perimeter
;WIDTH:0.499999
G1 F2400
G1 X113.407 Y116.593 E.88121
G1 X113.407 Y93.407 E.88121
G1 X136.593 Y93.407 E.88121
G1 X136.593 Y116.533 E.87893
M204 P4000
M204 T250
G1 X137.05 Y117.05 F18000
M204 T4000
M204 P500
;TYPE:External perimeter
G1 F2400
G1 X112.95 Y117.05 E.91595
G1 X112.95 Y92.95 E.91595
M73 P1 R19
G1 X137.05 Y92.95 E.91595
M73 Q1 S20
G1 X137.05 Y116.99 E.91367
M204 P4000
G1 X136.654 Y117.049 F18000
G1 E-.7 F2100
G1 X135.476 Y93.59 Z.61 F18000
G1 Z.2 F720
G1 E.7 F1500
M204 P500
;TYPE:Solid infill
;WIDTH:0.50488
G1 F6000
G1 X136.204 Y94.319 E.03957
G1 X136.204 Y94.972 E.02508
G1 X135.028 Y93.796 E.06388
G1 X134.375 Y93.796 E.02508
G1 X136.204 Y95.625 E.09936
G1 X136.204 Y96.278 E.02508
G1 X133.722 Y93.796 E.13483
G1 X133.068 Y93.796 E.02512
G1 X136.204 Y96.932 E.17036
G1 X136.204 Y97.585 E.02508
G1 X132.415 Y93.796 E.20583
G1 X131.762 Y93.796 E.02508
G1 X136.204 Y98.238 E.2413
G1 X136.204 Y98.892 E.02512
G1 X131.108 Y93.796 E.27683
G1 X130.455 Y93.796 E.02508
G1 X136.204 Y99.545 E.3123
G1 X136.204 Y100.198 E.02508
G1 X129.802 Y93.796 E.34778
G1 X129.148 Y93.796 E.02512
G1 X136.204 Y100.852 E.3833
G1 X136.204 Y101.505 E.02508
G1 X128.495 Y93.796 E.41878
G1 X127.842 Y93.796 E.02508
G1 X136.204 Y102.158 E.45425
G1 X136.204 Y102.812 E.02512
G1 X127.188 Y93.796 E.48978
G1 X126.535 Y93.796 E.02508
G1 X136.204 Y103.465 E.52525
G1 X136.204 Y104.118 E.02508
G1 X125.882 Y93.796 E.56072
G1 X125.228 Y93.796 E.02512
G1 X136.204 Y104.772 E.59625
G1 X136.204 Y105.425 E.02508
G1 X124.575 Y93.796 E.63172
G1 X123.922 Y93.796 E.02508
G1 X136.204 Y106.078 E.66719
G1 X136.204 Y106.731 E.02508
G1 X123.269 Y93.796 E.70267
G1 X122.615 Y93.796 E.02512
G1 X136.204 Y107.385 E.73819
G1 X136.204 Y108.038 E.02508
G1 X121.962 Y93.796 E.77367
G1 X121.309 Y93.796 E.02508
G1 X136.204 Y108.691 E.80914
G1 X136.204 Y109.345 E.02512
G1 X120.655 Y93.796 E.84467
G1 X120.002 Y93.796 E.02508
G1 X136.204 Y109.998 E.88014
G1 X136.204 Y110.651 E.02508
G1 X119.349 Y93.796 E.91561
G1 X118.695 Y93.796 E.02512
G1 X136.204 Y111.305 E.95114
G1 X136.204 Y111.958 E.02508
G1 X118.042 Y93.796 E.98661
G1 X117.389 Y93.796 E.02508
G1 X136.204 Y112.611 E1.02209
G1 X136.204 Y113.265 E.02512
G1 X116.735 Y93.796 E1.05761
G1 X116.082 Y93.796 E.02508
M73 P2 R19
G1 X136.204 Y113.918 E1.09309
G1 X136.204 Y114.571 E.02508
G1 X115.429 Y93.796 E1.12856
G1 X114.776 Y93.796 E.02508
M73 Q2 S20
G1 X136.204 Y115.224 E1.16403
G1 X136.204 Y115.878 E.02512
G1 X114.122 Y93.796 E1.19956
G1 X113.796 Y93.796 E.01252
G1 X113.796 Y94.122 E.01252
G1 X135.878 Y116.204 E1.19956
G1 X135.224 Y116.204 E.02512
G1 X113.796 Y94.776 E1.16403
G1 X113.796 Y95.429 E.02508
G1 X134.571 Y116.204 E1.12856
G1 X133.918 Y116.204 E.02508
G1 X113.796 Y96.082 E1.09309
G1 X113.796 Y96.736 E.02512
G1 X133.264 Y116.204 E1.05756
G1 X132.611 Y116.204 E.02508
G1 X113.796 Y97.389 E1.02209
G1 X113.796 Y98.042 E.02508
G1 X131.958 Y116.204 E.98661
G1 X131.305 Y116.204 E.02508
G1 X113.796 Y98.695 E.95114
G1 X113.796 Y99.349 E.02512
G1 X130.651 Y116.204 E.91561
G1 X129.998 Y116.204 E.02508
G1 X113.796 Y100.002 E.88014
G1 X113.796 Y100.655 E.02508
G1 X129.345 Y116.204 E.84467
G1 X128.691 Y116.204 E.02512
G1 X113.796 Y101.309 E.80914
G1 X113.796 Y101.962 E.02508
G1 X128.038 Y116.204 E.77367
G1 X127.385 Y116.204 E.02508
G1 X113.796 Y102.615 E.73819
G1 X113.796 Y103.269 E.02512
G1 X126.731 Y116.204 E.70267
G1 X126.078 Y116.204 E.02508
G1 X113.796 Y103.922 E.66719
G1 X113.796 Y104.575 E.02508
G1 X125.425 Y116.204 E.63172
G1 X124.771 Y116.204 E.02512
G1 X113.796 Y105.229 E.59619
G1 X113.796 Y105.882 E.02508
G1 X124.118 Y116.204 E.56072
G1 X123.465 Y116.204 E.02508
G1 X113.796 Y106.535 E.52525
G1 X113.796 Y107.188 E.02508
G1 X122.812 Y116.204 E.48978
G1 X122.158 Y116.204 E.02512
G1 X113.796 Y107.842 E.45425
G1 X113.796 Y108.495 E.02508
G1 X121.505 Y116.204 E.41878
G1 X120.852 Y116.204 E.02508
G1 X113.796 Y109.148 E.3833
M73 P3 R19
G1 X113.796 Y109.802 E.02512
G1 X120.198 Y116.204 E.34778
G1 X119.545 Y116.204 E.02508
G1 X113.796 Y110.455 E.3123
G1 X113.796 Y111.108 E.02508
G1 X118.892 Y116.204 E.27683
G1 X118.238 Y116.204 E.02512
G1 X113.796 Y111.762 E.2413
G1 X113.796 Y112.415 E.02508
G1 X117.585 Y116.204 E.20583
G1 X116.932 Y116.204 E.02508
G1 X113.796 Y113.068 E.17036
G1 X113.796 Y113.722 E.02512
M73 Q3 S20
G1 X116.278 Y116.204 E.13483
G1 X115.625 Y116.204 E.02508
G1 X113.796 Y114.375 E.09936
G1 X113.796 Y115.028 E.02508
G1 X114.972 Y116.204 E.06388
G1 X114.318 Y116.204 E.02512
G1 X113.59 Y115.476 E.03955
M204 P4000
M106 S89.25
;LAYER_CHANGE
;Z:0.4
;HEIGHT:0.2
;BEFORE_LAYER_CHANGE
G92 E0.0
;0.4
M201 X3999.84 Y3999.84

G1 E-.7 F2100
G1 X113.59 Y115.476 Z.2 F18000
G1 X136.868 Y116.868 Z.607
;AFTER_LAYER_CHANGE
;0.4
M74 W0.152246


M240 Z0.4 ZN1 S0 ; Start layer capture sequence



M104 S220 ; set temperature
G1 Z.4 F720
G1 E.7 F1500
;TYPE:Perimeter
;WIDTH:0.449999
G1 F9488.292
G1 X113.132 Y116.868 E.80343
G1 X113.132 Y93.132 E.80343
G1 X136.868 Y93.132 E.80343
G1 X136.868 Y116.808 E.8014
M204 T250
G1 X137.275 Y117.275 F18000
M204 T4000
;TYPE:External perimeter
G1 F9007.455
G1 X136.6 Y117.275 E.02285
G1 F9339.68
G1 X113.4 Y117.275 E.78529
G1 F9283.833
G1 X112.725 Y117.275 E.02285
G1 F9253.915
G1 X112.725 Y116.6 E.02285
G1 F9339.67
G1 X112.725 Y93.4 E.78529
G1 F9283.824
G1 X112.725 Y92.725 E.02285
G1 F9253.912
G1 X113.4 Y92.725 E.02285
G1 F9339.67
G1 X136.6 Y92.725 E.78529
G1 F9283.826
G1 X137.275 Y92.725 E.02285
G1 F9253.922
G1 X137.275 Y93.4 E.02285
G1 F9339.68
G1 X137.275 Y116.6 E.78529
G1 F9007.455
G1 X137.275 Y117.215 E.02082
G1 X136.879 Y117.274 F18000
G1 E-.7 F2100
G1 X118.317 Y98.335 Z.863 F18000
G1 X115.568 Y95.53 Z.923
G1 X113.589 Y93.511 Z.955
G1 Z.4 F720
G1 E.7 F1500
;TYPE:Solid infill
;WIDTH:0.548766
G1 F8895.988
G2 X113.572 Y93.572 I-.059 J.017 E.01322
G1 X113.345 Y94.368 F18000
;WIDTH:0.38292
G1 F12000
G1 X113.274 Y94.349 E.00208
G1 X113.293 Y94.42 E.00208
G1 X113.334 Y94.409 E.0012
;WIDTH:0.41646
G1 X113.406 Y94.316 E.00365
;WIDTH:0.449999
G1 F11054.364
G1 X113.478 Y94.222 E.00401
G1 X114.222 Y93.478 E.03561
G1 X114.316 Y93.406 E.00401
;WIDTH:0.41646
G1 F12000
G1 X114.409 Y93.334 E.00365
;WIDTH:0.38292
G1 X114.368 Y93.345 E.0012
G1 X114.349 Y93.274 E.00208
G1 X114.42 Y93.293 E.00208
;WIDTH:0.449999
G1 F11054.364
G1 X114.798 Y93.478 E.01425
G1 X113.478 Y94.798 E.06319
G1 X113.478 Y95.374 E.0195
G1 X115.374 Y93.478 E.09076
G1 X115.95 Y93.478 E.0195
G1 X113.478 Y95.95 E.11833
G1 X113.478 Y96.525 E.01946
G1 X116.525 Y93.478 E.14586
G1 X117.101 Y93.478 E.0195
G1 X113.478 Y97.101 E.17343
G1 X113.478 Y97.677 E.0195
G1 X117.677 Y93.478 E.201
G1 X118.252 Y93.478 E.01946
G1 X113.478 Y98.252 E.22853
G1 X113.478 Y98.828 E.0195
G1 X118.828 Y93.478 E.2561
G1 X119.404 Y93.478 E.0195
G1 X113.478 Y99.404 E.28367
G1 X113.478 Y99.979 E.01946
G1 X119.979 Y93.478 E.3112
G1 X120.555 Y93.478 E.0195
G1 X113.478 Y100.555 E.33877
G1 X113.478 Y101.131 E.0195
G1 X121.131 Y93.478 E.36634
G1 X121.706 Y93.478 E.01946
G1 X113.478 Y101.706 E.39387
G1 X113.478 Y102.282 E.0195
G1 X122.282 Y93.478 E.42144
G1 X122.858 Y93.478 E.0195
G1 X113.478 Y102.858 E.44901
G1 X113.478 Y103.434 E.0195
G1 X123.434 Y93.478 E.47659
G1 X124.009 Y93.478 E.01946
G1 X113.478 Y104.009 E.50411
G1 X113.478 Y104.585 E.0195
G1 X124.585 Y93.478 E.53169
G1 X125.161 Y93.478 E.0195
G1 X113.478 Y105.161 E.55926
G1 X113.478 Y105.736 E.01946
G1 X125.736 Y93.478 E.58678
G1 X126.312 Y93.478 E.0195
G1 X113.478 Y106.312 E.61436
G1 X113.478 Y106.888 E.0195
G1 X126.888 Y93.478 E.64193
G1 X127.463 Y93.478 E.01946
G1 X113.478 Y107.463 E.66945
G1 X113.478 Y108.039 E.0195
G1 X128.039 Y93.478 E.69703
G1 X128.615 Y93.478 E.0195
G1 X113.478 Y108.615 E.7246
G1 X113.478 Y109.191 E.0195
G1 X129.191 Y93.478 E.75217
G1 X129.766 Y93.478 E.01946
G1 X113.478 Y109.766 E.7797
G1 X113.478 Y110.342 E.0195
G1 X130.342 Y93.478 E.80727
G1 X130.918 Y93.478 E.0195
G1 X113.478 Y110.918 E.83484
G1 X113.478 Y111.493 E.01946
G1 X131.493 Y93.478 E.86237
G1 X132.069 Y93.478 E.0195
G1 X113.478 Y112.069 E.88994
G1 X113.478 Y112.645 E.0195
G1 X132.645 Y93.478 E.91751
G1 X133.22 Y93.478 E.01946
G1 X113.478 Y113.22 E.94504
G1 X113.478 Y113.796 E.0195
G1 X133.796 Y93.478 E.97261
G1 X134.372 Y93.478 E.0195
G1 X113.478 Y114.372 E1.00018
G1 X113.478 Y114.947 E.01946
G1 X134.947 Y93.478 E1.02771
G1 X135.523 Y93.478 E.0195
G1 X113.478 Y115.523 E1.05528
G1 X113.478 Y116.099 E.0195
G1 X136.099 Y93.478 E1.08285
G1 X136.67 Y93.36 E.01974
;WIDTH:0.38292
G1 F12000
G1 X136.599 Y93.341 E.00208
G1 X136.618 Y93.412 E.00208
G1 X136.659 Y93.401 E.0012
;WIDTH:0.41646
G1 X136.59 Y93.516 E.00417
;WIDTH:0.449999
G1 F11054.364
G1 X136.522 Y93.631 E.00452
G1 X113.631 Y116.522 E1.09578
G1 X113.516 Y116.59 E.00452
;WIDTH:0.41646
G1 F12000
G1 X113.401 Y116.659 E.00417
;WIDTH:0.38292
G1 X113.36 Y116.67 E.0012
G1 X113.341 Y116.599 E.00208
G1 X113.412 Y116.618 E.00208
;WIDTH:0.449999
G1 F11054.364
G1 X114.206 Y116.522 E.02707
G1 X136.522 Y94.206 E1.06825
G1 X136.522 Y94.782 E.0195
G1 X114.782 Y116.522 E1.04068
G1 X115.358 Y116.522 E.0195
G1 X136.522 Y95.358 E1.01311
G1 X136.522 Y95.934 E.0195
G1 X115.934 Y116.522 E.98553
G1 X116.509 Y116.522 E.01946
G1 X136.522 Y96.509 E.95801
G1 X136.522 Y97.085 E.0195
G1 X117.085 Y116.522 E.93044
G1 X117.661 Y116.522 E.0195
M73 P4 R19
G1 X136.522 Y97.661 E.90286
G1 X136.522 Y98.236 E.01946
G1 X118.236 Y116.522 E.87534
G1 X118.812 Y116.522 E.0195
G1 X136.522 Y98.812 E.84777
G1 X136.522 Y99.388 E.0195
G1 X119.388 Y116.522 E.82019
G1 X119.963 Y116.522 E.01946
M73 Q4 S20
G1 X136.522 Y99.963 E.79267
G1 X136.522 Y100.539 E.0195
G1 X120.539 Y116.522 E.7651
G1 X121.115 Y116.522 E.0195
G1 X136.522 Y101.115 E.73752
G1 X136.522 Y101.691 E.0195
G1 X121.691 Y116.522 E.70995
G1 X122.266 Y116.522 E.01946
G1 X136.522 Y102.266 E.68243
G1 X136.522 Y102.842 E.0195
G1 X122.842 Y116.522 E.65485
G1 X123.418 Y116.522 E.0195
G1 X136.522 Y103.418 E.62728
G1 X136.522 Y103.993 E.01946
G1 X123.993 Y116.522 E.59976
G1 X124.569 Y116.522 E.0195
G1 X136.522 Y104.569 E.57218
G1 X136.522 Y105.145 E.0195
G1 X125.145 Y116.522 E.54461
G1 X125.72 Y116.522 E.01946
G1 X136.522 Y105.72 E.51708
G1 X136.522 Y106.296 E.0195
G1 X126.296 Y116.522 E.48951
G1 X126.872 Y116.522 E.0195
G1 X136.522 Y106.872 E.46194
G1 X136.522 Y107.447 E.01946
G1 X127.447 Y116.522 E.43441
G1 X128.023 Y116.522 E.0195
G1 X136.522 Y108.023 E.40684
G1 X136.522 Y108.599 E.0195
G1 X128.599 Y116.522 E.37927
G1 X129.175 Y116.522 E.0195
G1 X136.522 Y109.175 E.3517
G1 X136.522 Y109.75 E.01946
G1 X129.75 Y116.522 E.32417
G1 X130.326 Y116.522 E.0195
G1 X136.522 Y110.326 E.2966
G1 X136.522 Y110.902 E.0195
G1 X130.902 Y116.522 E.26903
G1 X131.477 Y116.522 E.01946
G1 X136.522 Y111.477 E.2415
G1 X136.522 Y112.053 E.0195
G1 X132.053 Y116.522 E.21393
G1 X132.629 Y116.522 E.0195
G1 X136.522 Y112.629 E.18636
G1 X136.522 Y113.204 E.01946
G1 X133.204 Y116.522 E.15883
G1 X133.78 Y116.522 E.0195
G1 X136.522 Y113.78 E.13126
G1 X136.737 Y114.189 E.01564
;WIDTH:0.38292
G1 F12000
G1 X136.666 Y114.17 E.00208
G1 X136.685 Y114.241 E.00208
G1 X136.726 Y114.23 E.0012
;WIDTH:0.41646
G1 X136.624 Y114.293 E.00372
;WIDTH:0.449999
G1 F11054.364
G1 X136.522 Y114.356 E.00406
G1 X134.356 Y116.522 E.10369
G1 E-.7 F2100
G1 X136.378 Y115.075 Z.443 F18000
G1 Z.4 F720
G1 E.7 F1500
G1 F11054.364
G1 X134.932 Y116.522 E.06924
G1 X136.522 Y116.522 E.05382
M73 P4 R18
G1 X136.522 Y114.932 E.05382
G1 X136.119 Y116.039 F18000
;WIDTH:0.567442
G1 F8579.24
G2 X136.102 Y116.102 I-.06 J.018 E.01423
M106 S175.95
;LAYER_CHANGE
;Z:0.6
;HEIGHT:0.2
;BEFORE_LAYER_CHANGE
G92 E0.0
;0.6
M201 X3999.67 Y3999.67

G1 E-.7 F2100
G1 X136.102 Y116.102 Z.4 F18000
G1 X136.868 Y116.868 Z.6 F3963.041
;AFTER_LAYER_CHANGE
;0.6
M74 W0.30939


M240 Z0.6 ZN2 S0 ; Start layer capture sequence



G1 X136.868 Y116.868 F18000
G1 Z.6 F720
G1 E.7 F1500
;TYPE:Perimeter
;WIDTH:0.449999
G1 F10200
G1 X113.132 Y116.868 E.80343
G1 X113.132 Y93.132 E.80343
G1 X136.868 Y93.132 E.80343
G1 X136.868 Y116.808 E.8014
M204 T250
G1 X137.275 Y117.275 F18000
M204 T4000
;TYPE:External perimeter
G1 F10199.987
G1 X112.725 Y117.275 E.83099
G1 X112.725 Y92.725 E.83099
G1 X137.275 Y92.725 E.83099
G1 X137.275 Y117.215 E.82896
G1 X136.879 Y117.274 F18000
G1 E-.7 F2100
G1 X113.511 Y116.411 Z1.008 F18000
G1 Z.6 F720
G1 E.7 F1500
;TYPE:Solid infill
;WIDTH:0.548766
G1 F8895.988
G2 X113.572 Y116.428 I.017 J.059 E.01322
G1 X114.368 Y116.655 F18000
;WIDTH:0.38292
G1 F12000
M73 Q4 S19
G1 X114.349 Y116.726 E.00208
G1 X114.42 Y116.707 E.00208
G1 X114.409 Y116.666 E.0012
;WIDTH:0.41646
G1 X114.316 Y116.594 E.00365
;WIDTH:0.449999
G1 F11054.364
G1 X114.222 Y116.522 E.00401
G1 X113.478 Y115.778 E.03561
G1 X113.406 Y115.684 E.00401
;WIDTH:0.41646
G1 F12000
G1 X113.334 Y115.591 E.00365
;WIDTH:0.38292
G1 X113.345 Y115.632 E.0012
G1 X113.274 Y115.651 E.00208
G1 X113.293 Y115.58 E.00208
;WIDTH:0.449999
G1 F11054.364
G1 X113.478 Y115.202 E.01425
G1 X114.798 Y116.522 E.06319
G1 X115.374 Y116.522 E.0195
G1 X113.478 Y114.626 E.09076
G1 X113.478 Y114.051 E.01946
G1 X115.95 Y116.522 E.11831
G1 X116.525 Y116.522 E.01946
G1 X113.478 Y113.475 E.14586
G1 X113.478 Y112.899 E.0195
G1 X117.101 Y116.522 E.17343
G1 X117.677 Y116.522 E.0195
G1 X113.478 Y112.323 E.201
G1 X113.478 Y111.748 E.01946
G1 X118.252 Y116.522 E.22853
G1 X118.828 Y116.522 E.0195
G1 X113.478 Y111.172 E.2561
G1 X113.478 Y110.596 E.0195
G1 X119.404 Y116.522 E.28367
G1 X119.979 Y116.522 E.01946
G1 X113.478 Y110.021 E.3112
G1 X113.478 Y109.445 E.0195
G1 X120.555 Y116.522 E.33877
G1 X121.131 Y116.522 E.0195
G1 X113.478 Y108.869 E.36634
G1 X113.478 Y108.294 E.01946
