; Sample GCODE for testing pygcode_viewer
; generated by PrusaSlicer 2.7.0

; HEADER
; filament used [mm] = 1234.5
; filament used [cm3] = 2.97
; total layers count = 5

; Start GCode
G28 ; home all axes
M104 S200 ; set extruder temp
M140 S60 ; set bed temp
M109 S200 ; wait for extruder temp
M190 S60 ; wait for bed temp
G92 E0 ; reset extruder

; LAYER_CHANGE
; Z:0.2
; HEIGHT:0.2
G1 Z0.2 F1000
;TYPE:Skirt/Brim
G1 X50 Y50 F3000
G1 X150 Y50 E5 F1500
G1 X150 Y150 E10
G1 X50 Y150 E15
G1 X50 Y50 E20

; LAYER_CHANGE  
; Z:0.4
; HEIGHT:0.2
G1 Z0.4
;TYPE:External perimeter
;WIDTH:0.45
G1 X60 Y60 E21
G1 X140 Y60 E30 F1200
G1 X140 Y140 E39
G1 X60 Y140 E48
G1 X60 Y60 E57

;TYPE:Perimeter
G1 X65 Y65 E58
G1 X135 Y65 E65
G1 X135 Y135 E72
G1 X65 Y135 E79
G1 X65 Y65 E86

; LAYER_CHANGE
; Z:0.6
; HEIGHT:0.2
G1 Z0.6
;TYPE:Solid infill
G1 X70 Y70 E87
G1 X130 Y130 E100
G1 X70 Y130 E105
G1 X130 Y70 E110

;TYPE:Top solid infill
G1 X75 Y75 E111
G1 X125 Y75 E115
G1 X125 Y125 E119
G1 X75 Y125 E123
G1 X75 Y75 E127

; LAYER_CHANGE
; Z:0.8
; HEIGHT:0.2
G1 Z0.8
;TYPE:Internal infill
G1 X80 Y80 E128
G1 X120 Y120 E135

;TYPE:Bridge infill
G1 X80 Y90 E136
G1 X120 Y90 E140
G1 X80 Y100 E144
G1 X120 Y100 E148

; LAYER_CHANGE
; Z:1.0
; HEIGHT:0.2
G1 Z1.0
;TYPE:External perimeter
G1 X60 Y60 E149
G1 X140 Y60 E160
G1 X140 Y140 E171
G1 X60 Y140 E182
G1 X60 Y60 E193

; End GCode
G1 E-2 F2400 ; retract
G1 Z10 F1000 ; lift
G28 X Y ; home X Y
M104 S0 ; turn off extruder
M140 S0 ; turn off bed
M84 ; disable motors

; End of GCODE
